X: 396
T: Yangge
%%abc-version 2.0
%%abcx-abcm2ps-target-version 5.9.1 (29 Sep 2008)
%%abc-creator hum2abc beta
%%abcx-conversion-date 2013/10/02 07:52:30
%%abc-edited-by Helmut Schaffrath
%%humdrum-veritas 502870747
%%humdrum-veritas-data 2258919009
%%continueall 1
%%barnumbers 0
L: 1/8
M: 2/4
K: C
G2c c [I:setbarnb 1]| 
d> e d A | 
c c G A | 
G4 | 
G c c A | 
c> AG2 | 
G> c E D | 
C4 | 
G> E D C | 
E> G G A | 
G E D C | 
A,2z2 | 
e> d A c | 
dc2A | 
c Gc2 | 
G> E D C | 
e> d A c | 
dc2A | 
G2c2 | 
G> E D C |]  



